X: 74
T: Msza Święta - Dona nobis
C: Józef Stefani
%%abc-version 2.0
%%abcx-abcm2ps-target-version 5.9.1 (29 Sep 2008)
%%abc-creator hum2abc beta
%%abcx-conversion-date 2021/10/04 07:38:39
%%abc-edited-by Marcin Jachim
%%abc-edited-by Kamil Watkowski
%%abcx-initial-encoding-date 2021-08-13
%%humdrum-veritas 1818905860
%%humdrum-veritas-data 665868336
%%linebreak <none>
%%barnumbers 0
L: 1/8
M: 3/4
N: Derived from pl-kozmzk--mzk-m-26--009_stefani-jozef-msza-swieta-dona-nobis.krn
Q: "Moderato"
V: 1 clef=tenor
V: 2 clef=tenor
V: 3 clef=bass
V: 4 clef=treble
V: 5 clef=bass
K: Bb
[V:1] z6 | 
[V:2] z6 | 
[V:3] z6 | 
[V:4] z FGABc | 
[V:5] z6 | 
[V:1] D> DF2E3/ C/ | 
[V:2] B,> B,B,2G,3/ A,/ | 
[V:3] B,,> B,,D,2C,3/ F,/ | 
[V:4] d2f2e3/c/ & [F4B4][E3/G3/][F/A/] | 
[V:5] [F,4B,4][C,3/G,3/C3/][F,/C/] & B,,2D,2x2 | 
[V:1] D2D z z D | 
[V:2] B,2B, z z F, | 
[V:3] B,,2B,, z z B,, | 
[V:4] [F2B2d2]>z2 z [DFB] | 
[V:5] [B,,B,]F,D,F,D,B,, | 
[V:1] C2C2D3/F/ | 
[V:2] F,2F,2F,2 | 
[V:3] A,,2A,,2B,,3/D,/ | 
[V:4] c4d3/f/ & F6 | 
[V:5] A,,4B,,3/D,/ | 
[V:1] F>EC2D2 | 
[V:2] A,2A,2A,2 | 
[V:3] F,2F,2^F,2 | 
[V:4] f>ec2d2 & A4A2 | 
[V:5] F,4^F,2 | 
[V:1] E2>D2 E3/ D/ | 
[V:2] B,2>A,2 B,3/ A,/ | 
[V:3] G,2>^F,2 G,3/ =F,/ | 
[V:4] e2>d2 e3/d/ & B2>A2 B3/A/ | 
[V:5] G,2>^F,2 G,3/=F,/ | 
[V:1] D2C2F2 | 
[V:2] G,2G,2G,2 | 
[V:3] E,2E,2E,2 | 
[V:4] d2c2g2 & G6 | 
[V:5] E,4[E,,2E,2] | 
[V:1] A,2A,2B,3/D/ | 
[V:2] F,2F,2F,2 | 
[V:3] F,2E,2D,3/B,,/ | 
[V:4] A4B3/d/ & F6 | 
[V:5] [F,,2F,2][E,,2E,2]D,3/B,,/ | 
[V:1] D2C z A,3/ B,/ | 
[V:2] B,2A, z F,3/ G,/ | 
[V:3] F,2F, z F,3/ F,/ | 
[V:4] [B2d2][Ac] z [F3/A3/][G/B/] & F2x2x2 | 
[V:5] F,2[F,,F,] z[F,,2F,2] | 
[V:1] C2>=B,2 C3/ D/ | 
[V:2] A,2>^G,2 A,3/ B,/ | 
[V:3] F,4F,3/ F,/ | 
[V:4] [A2c2]>[^G2=B2] [A3/c3/][_B/d/] | 
[V:5] F,,F,F,,F,F,,F, | 
[V:1] E2C zF2 | 
[V:2] C2A, zF,2 | 
[V:3] F,2F, zF,2 | 
[V:4] [c2e2][Ac] z[F2f2] | 
[V:5] F,,F,F,, z[F,,2F,2] | 
[V:1] _D4C3/ B,/ | 
[V:2] F,4F,3/ F,/ | 
[V:3] B,,4C,3/ _D,/ | 
[V:4] _d4c3/B/ & F6- | 
[V:5] F,6 & B,,4C,3/_D,/ | 
[V:1] _D2C z ]|:  
[V:2] B,2B, z ]|:  
[V:3] F,2F, z ]|:  
[V:4] [B2_d2][Ac] z & F3x ]|:  
[V:5] [F,,3F,3]z ]|:  
[V:1] z2 [I:setbarnb 14]| 
[V:2] !accent!F3/ E/ | 
[V:3] z2 | 
[V:4] [F3/f3/][E/e/] | 
[V:5] z2 | 
[V:1] z2z2F3/ E/ | 
[V:2] D2D z D3/ C/ | 
[V:3] z6 | 
[V:4] [D2d2]>z2 [d3/f3/][c/e/] | 
[V:5] z6 | 
[V:1] D2D zD2 | 
[V:2] B,2B, z B,3/=B,/ | 
[V:3] z2z2G,3/F,/ | 
[V:4] [B2d2]>z2d2 & x2x2[G3/B3/][G/=B/] | 
[V:5] z2z2[G,,3/G,3/][F,,/F,/] | 
[V:1] F2E> E D3/ C/ | 
[V:2] C2C> C =B,3/ G,/ | 
[V:3] E,2E,> C, D,3/ E,/ | 
[V:4] f2[ce]>[ce][=B3/d3/]c/ & [G2c2]-G4 | 
[V:5] [E,,2E,2][E,,E,]>[C,,C,][D,,3/D,3/][E,,/E,/] | 
[V:1] D2C2F2 | 
[V:2] B,4A,2 | 
[V:3] F,6 | 
[V:4] d2c2[A2f2] & B4x2 | 
[V:5] [F,,6F,6] | 
[V:1] D3z :|]  
[V:2] B,3z :|]  
[V:3] B,,3z :|]  
[V:4] [F3B3d3]z :|]  
[V:5] [B,,3F,3]z :|]  
[V:1] B,2z2z2 | 
[V:2] B,2z2z2 | 
[V:3] B,2z2B,,3/ B,,/ | 
[V:4] B2z2z2 | 
[V:5] [B,,2B,2]z2B,,2 | 
[V:1] z2z2D3/ F/ | 
[V:2] z6 | 
[V:3] _A,4B,3/ A,/ | 
[V:4] z2z2d3/f/ | 
[V:5] _A,4B,3/A,/ | 
[V:1] E4z2 | 
[V:2] z2z2B,3/ B,/ | 
[V:3] G,4z2 | 
[V:4] e4B2- | 
[V:5] G,4B,2 | 
[V:1] z2z2_G3/ E/ | 
[V:2] B,4E3/ B,/ | 
[V:3] z2z2E,3/ _G,/ | 
[V:4] B4_g3/e/ & B6 | 
[V:5] B,4B,2 & x2x2E,3/_G,/ | 
[V:1] D2D z D3/F/ | 
[V:2] B,2B, zB,2 | 
[V:3] B,2B,, z B,3/A,/ | 
[V:4] d2>z2 d3/f/ & B2>x2B2 | 
[V:5] B,2B,, z B,3/_A,/ | 
[V:1] F2>E2 DC | 
[V:2] B,4G,2 | 
[V:3] G,4E,2 | 
[V:4] f2>e2 dc & B4G2 | 
[V:5] G,4E,2 | 
[V:1] D2C2F2 | 
[V:2] B,4A,2 | 
[V:3] F,6 | 
[V:4] d2c2f2 & B4A2 | 
[V:5] [F,,6F,6] | 
[V:1] D4D3/F/ | 
[V:2] B,4B,2 | 
[V:3] G,4_A,2 | 
[V:4] [B4d4]d3/f/ & G4B2 | 
[V:5] [G,,4G,4][_A,,2_A,2] | 
[V:1] F2>E2 DC | 
[V:2] B,4G,2 | 
[V:3] G,4E,2 | 
[V:4] f2>e2 dc & B4G2 | 
[V:5] [G,,4G,4][E,,2E,2] | 
[V:1] D2C2F2 | 
[V:2] B,4A,2 | 
[V:3] F,6 | 
[V:4] d2c2f2 & B4A2 | 
[V:5] [F,,6F,6] | 
[V:1] B,2z2z2 | 
[V:2] B,2z2z2 | 
[V:3] B,2z2z2 | 
[V:4] B2>[B2d2][ce][df] | 
[V:5] [B,,2B,2]>B,2A,_A, & x2xB,,3 | 
[V:1] z2z2E2 | 
[V:2] z2z2C2 | 
[V:3] z2z2A,2 | 
[V:4] e4c2 & B4A2 | 
[V:5] G,2_G,2F,2 & B,,6 | 
[V:1] D2>z2z2 | 
[V:2] B,2>z2z2 | 
[V:3] B,2>z2z2 | 
[V:4] [B2d2]>[D2B2][EA][F_A] | 
[V:5] F,3F,3 & B,,3B,,3- | 
[V:1] z2z2C2 | 
[V:2] z2z2A,2 | 
[V:3] z2z2F,2 | 
[V:4] [E4G4][C2E2F2A2] | 
[V:5] G,4F,2- & B,,6- | 
[V:1] D4B,2 | 
[V:2] B,4F,2 | 
[V:3] B,2F,2D,2 | 
[V:4] [D6F6B6] | 
[V:5] F,2D,2B,,2 & B,,2x2x2 | 
[V:1] D4!fermata!z2 |]  
[V:2] B,4!fermata!z2 |]  
[V:3] B,,4!fermata!z2 |]  
[V:4] !fermata![D6F6B6] |]  
[V:5] !fermata!B,,6 |]  


